Sources/FrostedUI/Resources/Icons.xcassets/arrowDownAngleLeft20.imageset/arrow-down-angle-left-20.svg

<svg width="20" height="20" viewBox="0 0 20 20" fill="none" xmlns="http://www.w3.org/2000/svg" data-fui-icon="true">
  <path
    d="M18.25 3C18.6642 3 19 3.33579 19 3.75V10.6875C19 11.9647 17.9647 13 16.6875 13H3.64648L6.2627 15.4531C6.56488 15.7364 6.58017 16.2105 6.29688 16.5127C6.01358 16.8149 5.53949 16.8302 5.2373 16.5469L1.2373 12.7969C1.08607 12.6551 1 12.4573 1 12.25C1 12.0427 1.08607 11.8449 1.2373 11.7031L5.2373 7.95312C5.53949 7.66983 6.01358 7.68512 6.29688 7.9873C6.58017 8.28949 6.56488 8.76358 6.2627 9.04688L3.64648 11.5H16.6875C17.1362 11.5 17.5 11.1362 17.5 10.6875V3.75C17.5 3.33579 17.8358 3 18.25 3Z"
    fill="currentColor"
  />
</svg>

<svg xmlns="http://www.w3.org/2000/svg" width="20" height="20" fill="none" data-fui-icon="true" viewBox="0 0 20 20"><path fill="currentColor" d="M18.25 3a.75.75 0 0 1 .75.75v6.938A2.31 2.31 0 0 1 16.688 13H3.646l2.617 2.453a.75.75 0 1 1-1.026 1.094l-4-3.75a.75.75 0 0 1 0-1.094l4-3.75a.75.75 0 1 1 1.026 1.094L3.646 11.5h13.042a.813.813 0 0 0 .812-.812V3.75a.75.75 0 0 1 .75-.75"/></svg>
